X:2408
T:Caitl\'in N\'i Aedha
R:slip jig
D:M\'aire N\'i Chathasaigh & Chris Newman: The Living Wood
Z:id:hn-slipjig-32
M:9/8
K:Emix
Bee Bcd cBA|Bee Bcd c2B|Bee Bcd cBA|BAB EFA B3:|
|:EFA B2c dcd|~B3 AGF G2E|EFA B2c dcd|1 ~B3 AGF E3:|2 eBB BAF E3||


